!!!COM: Music21
!!!OTL: slide_Bens-Birthday
!!!OMV: slide_Bens-Birthday
**kern
*clefG2
*k[f#]
*G:
*M12/8
=1
8d
=
4g
8b
4dd
8b
4cc
8b
4a
8gg
=
4ff#
8dd
8ccL
8b
8aJ
4ee
8dd
4b
8a
=
4g
8b
4dd
8b
4cc
8b
4a
8gg
=
8ff#L
8eeJ
8ddL
8cc
8b
8aJ
4.g
4g
8ryy
!!linebreak:original
=||
*M12/8
8d
=
4g
8b
4dd
8b
4cc
8b
4a
8gg
=
4ff#
8dd
8ccL
8b
8aJ
4ee
8dd
4b
8a
=
4g
8b
4dd
8b
4cc
8b
4a
8gg
=
8ff#L
8eeJ
8ddL
8cc
8b
8aJ
4.g
4g
8ryy
=||
8a
1ryy
4.ryy
!!linebreak:original
=
4b
8g
4d
8g
4b
8dd
4gg
8ee
=
4ff#
8dd
4aa
8gg
4ff#
8dd
8ccL
8b
8aJ
=
4b
8g
4d
8g
4b
8dd
4gg
8ee
=
8ff#L
8eeJ
8ddL
8cc
8b
8aJ
4.g
4g
8ryy
=||
8a
1ryy
4.ryy
!!linebreak:original
=
4b
8g
4d
8g
4b
8dd
4gg
8ee
=
4ff#
8dd
4aa
8gg
4ff#
8dd
8ccL
8b
8aJ
=
4b
8g
4d
8g
4b
8dd
4gg
8ee
=
8ff#L
8eeJ
8ddL
8cc
8b
8aJ
4.g
4g
8ryy
=||
*-
